X:1037
T:BAL D' ERQUY
Z: Yves BELOTTEAU
M:4/4
L:1/8
Q:1/4=60
K:C
|ggag gc/2d/2ec|e/2g/2f/2e/2de/2f/2 g/2f/2e/2d/2ec|ggag gc/2d/2ec|e/2g/2
f/2e/2de/2f/2 g/2f/2e/2d/2ec|
c2ee fddc/2d/2|ece/2g/2f/2e/2 de/2f/2g/2f/2e/2d/2|ecee fddc/2d/2|ece/2g/
2f/2e/2 de/2f/2g/2f/2e/2d/2|
ecc2|


